src/icons/brands/paypal.svg

<svg fill="none" height="29" viewBox="0 0 116 29" width="116" xmlns="http://www.w3.org/2000/svg"><path d="m43.4149 6.63284h-6.3977c-.2118.00004-.4166.07552-.5776.21283-.1609.13731-.2675.32744-.3004.53617l-2.588 16.36696c-.0118.0759-.0071.1535.014.2274.021.0739.0578.1424.1079.2007.0501.0584.1123.1052.1823.1373.0699.0321.146.0487.223.0486h3.0541c.2117 0 .4166-.0755.5775-.2128.161-.1373.2675-.3274.3005-.5362l.7016-4.415c.0329-.2085.1393-.3985.3001-.5358.1607-.1373.3653-.2129.5769-.2132h2.0257c4.2096 0 6.6462-2.035 7.2817-6.067.1776-.7043.1965-1.4392.0554-2.1518-.141-.71254-.4386-1.38505-.8713-1.96916-.9091-1.066-2.5218-1.63-4.6637-1.63zm.7377 5.97796c-.3498 2.29-2.1048 2.29-3.7997 2.29h-.9653l.6776-4.277c.0198-.125.0837-.239.1801-.3213.0965-.0823.2192-.1275.3461-.1277h.442c1.1557 0 2.2452 0 2.8065.657.1794.2557.3003.5476.354.855.0537.3075.0389.6229-.0433.924zm18.3862-.074h-3.064c-.1269.0002-.2496.0454-.3461.1277-.0964.0823-.1603.1963-.1801.3213l-.1353.855-.2145-.31c-.6635-.96-2.1419-1.281-3.6183-1.281-1.6897.0357-3.3102.6761-4.5659 1.8046-1.2558 1.1284-2.0632 2.6696-2.2748 4.3424-.1619.8192-.1437 1.6637.0534 2.4751.1971.8115.5684 1.5706 1.0882 2.2249.4847.5319 1.0834.9479 1.7515 1.2171.668.2692 1.3884.3847 2.1073.3379.7885.0079 1.5705-.143 2.2992-.4437s1.3891-.745 1.9416-1.3063l-.1363.849c-.0122.076-.0077.1537.0131.2278.0209.0741.0576.1428.1076.2013.05.0586.1122.1056.1822.1379s.1462.049.2233.049h2.7593c.2118 0 .4166-.0755.5776-.2128s.2675-.3274.3004-.5362l1.6559-10.462c.0121-.0758.0077-.1533-.0131-.2272s-.0574-.1424-.1074-.2008c-.0499-.0584-.112-.1053-.1819-.1374s-.1459-.0487-.2229-.0486zm-4.2708 5.947c-.1193.8239-.5368 1.5758-1.1737 2.1135-.6369.5378-1.4491.8243-2.2832.8055-.3832.0399-.7703-.0138-1.128-.1566s-.6752-.3703-.925-.6629-.4245-.6414-.509-1.0165c-.0845-.375-.0762-.7649.0242-1.136.1165-.8226.5291-1.5749 1.1608-2.1162.6318-.5414 1.4393-.8349 2.272-.8258.381-.0201.7618.0441 1.115.1881.3531.1441.67.3643.9277.6449.2386.3015.4085.6511.498 1.0246.0894.3735.0964.762.0202 1.1384zm20.5873-5.949h-3.074c-.1453.0001-.2883.0356-.4167.1034s-.2382.1659-.32.2856l-4.2458 6.24-1.8041-6c-.0552-.1829-.1679-.3433-.3215-.4573s-.34-.1756-.5315-.1757h-3.0259c-.0841.0008-.1668.0214-.2414.0601-.0745.0387-.1389.0944-.1878.1627-.0488.0682-.0808.1471-.0933.23s-.0052.1677.0213.2472l3.3908 9.929-3.1883 4.49c-.0567.0797-.0903.1733-.0972.2707-.0068.0974.0133.1948.0582.2815.0449.0868.1129.1595.1965.2103.0836.0507.1796.0776.2775.0775h3.075c.1436.0002.2851-.0344.4124-.1007.1272-.0664.2365-.1626.3183-.2803l10.2315-14.736c.0555-.0798.0879-.1732.094-.2701.006-.0968-.0147-.1935-.0598-.2795-.0451-.0861-.113-.1581-.1962-.2084s-.1787-.0769-.276-.077z" fill="#253b80"/><path d="m89.2509 6.63286h-6.4037c-.2116.00028-.4162.07587-.577.21316-.1607.13729-.2671.32729-.3.53584l-2.583 16.36704c-.012.0758-.0074.1534.0135.2273s.0577.1424.1077.2007c.05.0584.1121.1053.1821.1374.0699.0321.146.0486.2229.0486h3.2836c.1481-.0004.2913-.0535.4037-.1497s.1868-.2293.2097-.3753l.7347-4.64c.0329-.2086.1393-.3986.3001-.5359.1607-.1373.3653-.2129.5769-.2131h2.0246c4.2157 0 6.6463-2.035 7.2828-6.067.1776-.7045.1965-1.4394.0553-2.152-.1413-.71263-.4392-1.3851-.8722-1.96904-.9081-1.066-2.5198-1.63-4.6617-1.63zm.7377 5.97804c-.3488 2.29-2.1049 2.29-3.7997 2.29h-.9643l.6786-4.277c.0194-.1251.083-.2391.1793-.3215.0964-.0824.219-.1276.3459-.1275h.442c1.1547 0 2.2452 0 2.8065.657.1795.2555.3005.5474.3544.8548.0538.3075.0393.623-.0427.9242zm18.3854-.074h-3.062c-.127-.0005-.25.0445-.347.1269-.096.0824-.16.1967-.179.3221l-.136.855-.215-.31c-.664-.96-2.141-1.281-3.618-1.281-1.6891.0356-3.3094.6761-4.565 1.8046-1.2556 1.1284-2.0628 2.6696-2.2743 4.3424-.1618.8191-.1437 1.6635.0532 2.4749.197.8114.568 1.5706 1.0875 2.2251.4848.5317 1.0835.9476 1.7515 1.2168.6681.2692 1.3884.3848 2.1073.3382.7885.0079 1.5708-.1431 2.2988-.4438.729-.3007 1.389-.7449 1.942-1.3062l-.136.849c-.013.076-.008.1538.013.228.021.0741.058.1428.108.2014s.112.1056.182.1378.147.0489.224.0488h2.758c.212-.0003.416-.0759.577-.2132s.267-.3273.3-.5358l1.663-10.467c.012-.076.007-.1536-.014-.2275s-.058-.1424-.109-.2007c-.05-.0583-.112-.1051-.182-.1372s-.146-.0487-.223-.0486zm-4.271 5.947c-.119.824-.536 1.5761-1.173 2.114-.637.5378-1.45.8242-2.284.805-.383.0398-.7702-.0139-1.1279-.1567s-.6752-.3703-.925-.6629c-.2499-.2926-.4246-.6414-.509-1.0164-.0845-.3751-.0762-.7649.0241-1.136.117-.8225.5298-1.5745 1.1614-2.1158s1.4394-.835 2.2714-.8262c.381-.0202.762.044 1.115.1881.353.144.67.3642.928.6449.239.3007.41.6501.499 1.0236.09.3735.097.762.02 1.1384zm7.882-11.40004-2.626 16.66704c-.012.0758-.007.1534.014.2273.02.0739.057.1424.107.2007.05.0584.112.1053.182.1374s.146.0486.223.0486h2.64c.212.0003.417-.075.578-.2124s.268-.3277.3-.5366l2.59-16.36904c.012-.0759.008-.1535-.013-.22745-.021-.07396-.058-.14252-.108-.20096s-.112-.10538-.182-.13759c-.07-.03222-.146-.04893-.223-.049h-2.952c-.127.00036-.249.04585-.346.12831-.096.08247-.16.19652-.18.32169z" fill="#179bd7"/><path d="m6.79683 27.5451.48912-3.081-1.0895-.025h-5.203957l3.616307-22.73404c.01083-.06976.04646-.13332.10038-.17903.05393-.04572.12254-.07056.1933-.06996h8.77512c2.9127 0 4.9234.6 5.9728 1.787.4637.50298.7929 1.11449.9572 1.778.1612.80919.1636 1.6419.007 2.45199l-.011.071v.628l.4921.276c.3753.18839.7129.44358.9963.75301.4366.51033.7171 1.13513.8078 1.80003.1136.8694.0746 1.7519-.1152 2.608-.1859 1.0386-.5504 2.0373-1.0775 2.952-.4323.73-1.0126 1.3618-1.7039 1.855-.6986.4793-1.4792.8271-2.3033 1.026-.9403.2295-1.9057.34-2.8736.329h-.6826c-.4885.0007-.9612.1732-1.3351.487-.3712.3151-.6178.7519-.6956 1.232l-.0511.277-.864 5.43-.039.2c-.0024.0442-.0218.0857-.0542.116-.0256.0205-.0573.0318-.0902.032z" fill="#253b80"/><path d="m21.561 7.49023c-.0261.16734-.0562.33834-.0902.513-1.1577 5.92797-5.1118 7.97497-10.1724 7.97497h-2.57394c-.29858-.0001-.58734.1064-.81403.3003-.22668.1939-.37631.4623-.42181.7567l-1.31802 8.34-.36985 2.365c-.01493.0939-.00929.1898.01654.2812.02583.0915.07122.1762.13306.2485.06183.0722.13863.1302.22511.17.08647.0398.18056.0604.27578.0603h4.56146c.2614-.0006.514-.0939.7128-.2631.1988-.1693.3309-.4035.3727-.6609l.0451-.231.86-5.443.0551-.3c.0414-.2577.1733-.4924.3722-.662.1988-.1697.4517-.2632.7133-.264h.6776c4.4241 0 7.8871-1.792 8.8994-6.978.423-2.166.2005-3.97497-.9151-5.24697-.3546-.39341-.7782-.71906-1.2498-.961z" fill="#179bd7"/><path d="m20.3495 7.11502c-.3696-.10658-.7455-.18974-1.1256-.249-.7508-.11505-1.5096-.17023-2.2692-.165h-6.8778c-.26181-.00023-.51506.093-.71396.26283-.1989.16984-.33034.40507-.37054.66317l-1.46336 9.24598-.0421.27c.04549-.2944.19512-.5628.42181-.7567.22668-.1939.51545-.3004.81403-.3003h2.57492c5.0566 0 9.0157-2.049 10.1724-7.97498.0351-.175.0631-.346.0902-.513-.3053-.15961-.6235-.29341-.9512-.4-.0862-.02866-.1727-.05566-.2596-.081z" fill="#222d65"/><path d="m8.99365 7.63801c.04075-.25726.17256-.49143.37153-.66004s.45191-.26048.71292-.25896h6.8778c.7596-.00517 1.5184.04967 2.2693.164.4695.07306.9326.18238 1.3851.327.3276.10708.6457.24087.9512.4.2218-.86729.2294-1.77529.0222-2.64614-.2073-.87085-.6231-1.67856-1.2119-2.35386-1.309-1.478-3.6704-2.110004-6.6934-2.110004h-8.77415c-.29812-.000941-.5868.104297-.81409.296781-.22728.192484-.37826.459573-.42576.753223l-3.6553972 22.96099c-.01666956.1064-.00997695.2152.0196152.3188.0295922.1036.081378.1995.151779.2812.070907.0822.158738.1481.257504.1933s.206144.0687.314811.0687h5.412438l1.36012-8.553 1.46337-9.18399z" fill="#253b80"/></svg>

<svg width="116" height="29" viewBox="0 0 116 29" fill="none" xmlns="http://www.w3.org/2000/svg">
<path d="M43.4149 6.63284H37.0172C36.8054 6.63288 36.6006 6.70836 36.4396 6.84567C36.2787 6.98298 36.1721 7.17311 36.1392 7.38184L33.5512 23.7488C33.5394 23.8247 33.5441 23.9023 33.5652 23.9762C33.5862 24.0501 33.623 24.1186 33.6731 24.1769C33.7232 24.2353 33.7854 24.2821 33.8554 24.3142C33.9253 24.3463 34.0014 24.3629 34.0784 24.3628H37.1325C37.3442 24.3628 37.5491 24.2873 37.71 24.15C37.871 24.0127 37.9775 23.8226 38.0105 23.6138L38.7121 19.1988C38.745 18.9903 38.8514 18.8003 39.0122 18.663C39.1729 18.5257 39.3775 18.4501 39.5891 18.4498H41.6148C45.8244 18.4498 48.261 16.4148 48.8965 12.3828C49.0741 11.6785 49.093 10.9436 48.9519 10.231C48.8109 9.51846 48.5133 8.84595 48.0806 8.26184C47.1715 7.19584 45.5588 6.63184 43.4169 6.63184L43.4149 6.63284ZM44.1526 12.6108C43.8028 14.9008 42.0478 14.9008 40.3529 14.9008H39.3876L40.0652 10.6238C40.085 10.4988 40.1489 10.3848 40.2453 10.3025C40.3418 10.2202 40.4645 10.175 40.5914 10.1748H41.0334C42.1891 10.1748 43.2786 10.1748 43.8399 10.8318C44.0193 11.0875 44.1402 11.3794 44.1939 11.6868C44.2476 11.9943 44.2328 12.3097 44.1506 12.6108H44.1526ZM62.5388 12.5368H59.4748C59.3479 12.537 59.2252 12.5822 59.1287 12.6645C59.0323 12.7468 58.9684 12.8608 58.9486 12.9858L58.8133 13.8408L58.5988 13.5308C57.9353 12.5708 56.4569 12.2498 54.9805 12.2498C53.2908 12.2855 51.6703 12.9259 50.4146 14.0544C49.1588 15.1828 48.3514 16.724 48.1398 18.3968C47.9779 19.216 47.9961 20.0605 48.1932 20.8719C48.3903 21.6834 48.7616 22.4425 49.2814 23.0968C49.7661 23.6287 50.3648 24.0447 51.0329 24.3139C51.7009 24.5831 52.4213 24.6986 53.1402 24.6518C53.9287 24.6597 54.7107 24.5088 55.4394 24.2081C56.1681 23.9074 56.8285 23.4631 57.381 22.9018L57.2447 23.7508C57.2325 23.8268 57.237 23.9045 57.2578 23.9786C57.2787 24.0527 57.3154 24.1214 57.3654 24.1799C57.4154 24.2385 57.4776 24.2855 57.5476 24.3178C57.6176 24.3501 57.6938 24.3668 57.7709 24.3668H60.5302C60.742 24.3668 60.9468 24.2913 61.1078 24.154C61.2688 24.0167 61.3753 23.8266 61.4082 23.6178L63.0641 13.1558C63.0762 13.08 63.0718 13.0025 63.051 12.9286C63.0302 12.8547 62.9936 12.7862 62.9436 12.7278C62.8937 12.6694 62.8316 12.6225 62.7617 12.5904C62.6918 12.5583 62.6158 12.5417 62.5388 12.5418V12.5368ZM58.268 18.4838C58.1487 19.3077 57.7312 20.0596 57.0943 20.5973C56.4574 21.1351 55.6452 21.4216 54.8111 21.4028C54.4279 21.4427 54.0408 21.389 53.6831 21.2462C53.3254 21.1034 53.0079 20.8759 52.7581 20.5833C52.5083 20.2907 52.3336 19.9419 52.2491 19.5668C52.1646 19.1918 52.1729 18.8019 52.2733 18.4308C52.3898 17.6082 52.8024 16.8559 53.4341 16.3146C54.0659 15.7732 54.8734 15.4797 55.7061 15.4888C56.0871 15.4687 56.4679 15.5329 56.8211 15.6769C57.1742 15.821 57.4911 16.0412 57.7488 16.3218C57.9874 16.6233 58.1573 16.9729 58.2468 17.3464C58.3362 17.7199 58.3432 18.1084 58.267 18.4848L58.268 18.4838ZM78.8553 12.5348H75.7813C75.636 12.5349 75.493 12.5704 75.3646 12.6382C75.2362 12.706 75.1264 12.8041 75.0446 12.9238L70.7988 19.1638L68.9947 13.1638C68.9395 12.9809 68.8268 12.8205 68.6732 12.7065C68.5196 12.5925 68.3332 12.5309 68.1417 12.5308H65.1158C65.0317 12.5316 64.949 12.5522 64.8744 12.5909C64.7999 12.6296 64.7355 12.6853 64.6866 12.7536C64.6378 12.8218 64.6058 12.9007 64.5933 12.9836C64.5808 13.0665 64.5881 13.1513 64.6146 13.2308L68.0054 23.1598L64.8171 27.6498C64.7604 27.7295 64.7268 27.8231 64.7199 27.9205C64.7131 28.0179 64.7332 28.1153 64.7781 28.202C64.823 28.2888 64.891 28.3615 64.9746 28.4123C65.0582 28.463 65.1542 28.4899 65.2521 28.4898H68.3271C68.4707 28.49 68.6122 28.4554 68.7395 28.3891C68.8667 28.3227 68.976 28.2265 69.0578 28.1088L79.2893 13.3728C79.3448 13.293 79.3772 13.1996 79.3833 13.1027C79.3893 13.0059 79.3686 12.9092 79.3235 12.8232C79.2784 12.7371 79.2105 12.6651 79.1273 12.6148C79.0441 12.5645 78.9486 12.5379 78.8513 12.5378L78.8553 12.5348Z" fill="#253B80"/>
<path d="M89.2509 6.63286H82.8472C82.6356 6.63314 82.431 6.70873 82.2702 6.84602C82.1095 6.98331 82.0031 7.17331 81.9702 7.38186L79.3872 23.7489C79.3752 23.8247 79.3798 23.9023 79.4007 23.9762C79.4216 24.0501 79.4584 24.1186 79.5084 24.1769C79.5584 24.2353 79.6205 24.2822 79.6905 24.3143C79.7604 24.3464 79.8365 24.3629 79.9134 24.3629H83.197C83.3451 24.3625 83.4883 24.3094 83.6007 24.2132C83.7131 24.117 83.7875 23.9839 83.8104 23.8379L84.5451 19.1979C84.578 18.9893 84.6844 18.7993 84.8452 18.662C85.0059 18.5247 85.2105 18.4491 85.4221 18.4489H87.4467C91.6624 18.4489 94.093 16.4139 94.7295 12.3819C94.9071 11.6774 94.926 10.9425 94.7848 10.2299C94.6435 9.51727 94.3456 8.8448 93.9126 8.26086C93.0045 7.19486 91.3928 6.63086 89.2509 6.63086V6.63286ZM89.9886 12.6109C89.6398 14.9009 87.8837 14.9009 86.1889 14.9009H85.2246L85.9032 10.6239C85.9226 10.4988 85.9862 10.3848 86.0825 10.3024C86.1789 10.22 86.3015 10.1748 86.4284 10.1749H86.8704C88.0251 10.1749 89.1156 10.1749 89.6769 10.8319C89.8564 11.0874 89.9774 11.3793 90.0313 11.6867C90.0851 11.9942 90.0706 12.3097 89.9886 12.6109ZM108.374 12.5369H105.312C105.185 12.5364 105.062 12.5814 104.965 12.6638C104.869 12.7462 104.805 12.8605 104.786 12.9859L104.65 13.8409L104.435 13.5309C103.771 12.5709 102.294 12.2499 100.817 12.2499C99.1279 12.2855 97.5076 12.926 96.252 14.0545C94.9964 15.1829 94.1892 16.7241 93.9777 18.3969C93.8159 19.216 93.834 20.0604 94.0309 20.8718C94.2279 21.6832 94.5989 22.4424 95.1184 23.0969C95.6032 23.6286 96.2019 24.0445 96.8699 24.3137C97.538 24.5829 98.2583 24.6985 98.9772 24.6519C99.7657 24.6598 100.548 24.5088 101.276 24.2081C102.005 23.9074 102.665 23.4632 103.218 22.9019L103.082 23.7509C103.069 23.8269 103.074 23.9047 103.095 23.9789C103.116 24.053 103.153 24.1217 103.203 24.1803C103.253 24.2389 103.315 24.2859 103.385 24.3181C103.455 24.3503 103.532 24.367 103.609 24.3669H106.367C106.579 24.3666 106.783 24.291 106.944 24.1537C107.105 24.0164 107.211 23.8264 107.244 23.6179L108.907 13.1509C108.919 13.0749 108.914 12.9973 108.893 12.9234C108.872 12.8495 108.835 12.781 108.784 12.7227C108.734 12.6644 108.672 12.6176 108.602 12.5855C108.532 12.5534 108.456 12.5368 108.379 12.5369H108.374ZM104.103 18.4839C103.984 19.3079 103.567 20.06 102.93 20.5979C102.293 21.1357 101.48 21.4221 100.646 21.4029C100.263 21.4427 99.8758 21.389 99.5181 21.2462C99.1604 21.1034 98.8429 20.8759 98.5931 20.5833C98.3432 20.2907 98.1685 19.9419 98.0841 19.5669C97.9996 19.1918 98.0079 18.802 98.1082 18.4309C98.2252 17.6084 98.638 16.8564 99.2696 16.3151C99.9012 15.7738 100.709 15.4801 101.541 15.4889C101.922 15.4687 102.303 15.5329 102.656 15.677C103.009 15.821 103.326 16.0412 103.584 16.3219C103.823 16.6226 103.994 16.972 104.083 17.3455C104.173 17.719 104.18 18.1075 104.103 18.4839ZM111.985 7.08386L109.359 23.7509C109.347 23.8267 109.352 23.9043 109.373 23.9782C109.393 24.0521 109.43 24.1206 109.48 24.1789C109.53 24.2373 109.592 24.2842 109.662 24.3163C109.732 24.3484 109.808 24.3649 109.885 24.3649H112.525C112.737 24.3652 112.942 24.2899 113.103 24.1525C113.264 24.0151 113.371 23.8248 113.403 23.6159L115.993 7.24686C116.005 7.17096 116.001 7.09336 115.98 7.01941C115.959 6.94545 115.922 6.87689 115.872 6.81845C115.822 6.76001 115.76 6.71307 115.69 6.68086C115.62 6.64864 115.544 6.63193 115.467 6.63186H112.515C112.388 6.63222 112.266 6.67771 112.169 6.76017C112.073 6.84264 112.009 6.95669 111.989 7.08186L111.985 7.08386Z" fill="#179BD7"/>
<path d="M6.79683 27.5451L7.28595 24.4641L6.19645 24.4391H0.992493L4.6088 1.70506C4.61963 1.6353 4.65526 1.57174 4.70918 1.52603C4.76311 1.48031 4.83172 1.45547 4.90248 1.45607H13.6776C16.5903 1.45607 18.601 2.05607 19.6504 3.24307C20.1141 3.74605 20.4433 4.35756 20.6076 5.02107C20.7688 5.83026 20.7712 6.66297 20.6146 7.47306L20.6036 7.54406V8.17206L21.0957 8.44806C21.471 8.63645 21.8086 8.89164 22.092 9.20107C22.5286 9.7114 22.8091 10.3362 22.8998 11.0011C23.0134 11.8705 22.9744 12.753 22.7846 13.6091C22.5987 14.6477 22.2342 15.6464 21.7071 16.5611C21.2748 17.2911 20.6945 17.9229 20.0032 18.4161C19.3046 18.8954 18.524 19.2432 17.6999 19.4421C16.7596 19.6716 15.7942 19.7821 14.8263 19.7711H14.1437C13.6552 19.7718 13.1825 19.9443 12.8086 20.2581C12.4374 20.5732 12.1908 21.01 12.113 21.4901L12.0619 21.7671L11.1979 27.1971L11.1589 27.3971C11.1565 27.4413 11.1371 27.4828 11.1047 27.5131C11.0791 27.5336 11.0474 27.5449 11.0145 27.5451H6.79683Z" fill="#253B80"/>
<path d="M21.561 7.49023C21.5349 7.65757 21.5048 7.82857 21.4708 8.00323C20.3131 13.9312 16.359 15.9782 11.2984 15.9782H8.72446C8.42588 15.9781 8.13712 16.0846 7.91043 16.2785C7.68375 16.4724 7.53412 16.7408 7.48862 17.0352L6.1706 25.3752L5.80075 27.7402C5.78582 27.8341 5.79146 27.93 5.81729 28.0214C5.84312 28.1129 5.88851 28.1976 5.95035 28.2699C6.01218 28.3421 6.08898 28.4001 6.17546 28.4399C6.26193 28.4797 6.35602 28.5003 6.45124 28.5002H11.0127C11.2741 28.4996 11.5267 28.4063 11.7255 28.2371C11.9243 28.0678 12.0564 27.8336 12.0982 27.5762L12.1433 27.3452L13.0033 21.9022L13.0584 21.6022C13.0998 21.3445 13.2317 21.1098 13.4306 20.9402C13.6294 20.7705 13.8823 20.677 14.1439 20.6762H14.8215C19.2456 20.6762 22.7086 18.8842 23.7209 13.6982C24.1439 11.5322 23.9214 9.72323 22.8058 8.45123C22.4512 8.05782 22.0276 7.73217 21.556 7.49023H21.561Z" fill="#179BD7"/>
<path d="M20.3495 7.11502C19.9799 7.00844 19.604 6.92528 19.2239 6.86602C18.4731 6.75097 17.7143 6.69579 16.9547 6.70102H10.0769C9.81509 6.70079 9.56184 6.79402 9.36294 6.96385C9.16404 7.13369 9.0326 7.36892 8.9924 7.62702L7.52904 16.873L7.48694 17.143C7.53243 16.8486 7.68206 16.5802 7.90875 16.3863C8.13543 16.1924 8.4242 16.0859 8.72278 16.086H11.2977C16.3543 16.086 20.3134 14.037 21.4701 8.11102C21.5052 7.93602 21.5332 7.76502 21.5603 7.59802C21.255 7.43841 20.9368 7.30461 20.6091 7.19802C20.5229 7.16936 20.4364 7.14236 20.3495 7.11702V7.11502Z" fill="#222D65"/>
<path d="M8.99365 7.63801C9.0344 7.38075 9.16621 7.14658 9.36518 6.97797C9.56415 6.80936 9.81709 6.71749 10.0781 6.71901H16.9559C17.7155 6.71384 18.4743 6.76868 19.2252 6.88301C19.6947 6.95607 20.1578 7.06539 20.6103 7.21001C20.9379 7.31709 21.256 7.45088 21.5615 7.61001C21.7833 6.74272 21.7909 5.83472 21.5837 4.96387C21.3764 4.09302 20.9606 3.28531 20.3718 2.61001C19.0628 1.13201 16.7014 0.500006 13.6784 0.500006H4.90425C4.60613 0.499065 4.31745 0.604303 4.09016 0.796787C3.86288 0.989271 3.7119 1.25636 3.6644 1.55001L0.0090028 24.511C-0.00766676 24.6174 -0.000974154 24.7262 0.028618 24.8298C0.0582102 24.9334 0.109996 25.0293 0.180397 25.111C0.251304 25.1932 0.339135 25.2591 0.437901 25.3043C0.536667 25.3495 0.644045 25.373 0.752712 25.373H6.16515L7.52527 16.82L8.98864 7.63601L8.99365 7.63801Z" fill="#253B80"/>
</svg>
